src/pos-icons/cup.svg

<svg height="24" viewBox="0 0 24 24" width="24" xmlns="http://www.w3.org/2000/svg"><path d="m18.32 8h-12.65l-.44-4h13.54m-15.77-2 2 18.23c.13 1 .97 1.77 2 1.77h10c1 0 1.87-.77 2-1.77l2-18.23z"/></svg>

<?xml version="1.0" encoding="UTF-8"?><!DOCTYPE svg PUBLIC "-//W3C//DTD SVG 1.1//EN" "http://www.w3.org/Graphics/SVG/1.1/DTD/svg11.dtd"><svg xmlns="http://www.w3.org/2000/svg" xmlns:xlink="http://www.w3.org/1999/xlink" version="1.1" id="mdi-cup" width="24" height="24" viewBox="0 0 24 24"><path d="M18.32,8H5.67L5.23,4H18.77M3,2L5,20.23C5.13,21.23 5.97,22 7,22H17C18,22 18.87,21.23 19,20.23L21,2H3Z" /></svg>
